X: 449
T: Nakhes fun kinder
O: Belf
Z: 2005 John Chambers <jc:trillian.mit.edu>
M: 4/4
L: 1/16
K: Dphr^F
"^A"\
|:"D"d2dd d2d2 "Cm"c2Bc "D"d4 \
| "D"z2dd dddd "Cm"c2Bc "D"d4 \
| "D"z2f2 f2d2 "Gm"g3f feed 
| "D"z2ff ffff "Gm"g3f feed \
| "D"d4 "Cm"cBc2 "D"d8 :| \
"^B"\
|:"Gm"z2GG G2G2 "D"G2FG A4 \
|  "D"z2F2 F2F2 F2EF E2D2 
| "Gm"z2G2 G2G2 G2FG d4 \
|  "D"z2F2 F2F2 F2EF E2D2 \
|  "D"D4 "Cm"CB,C2 "D"D8 :| \
"^C"\
|:"Gm"d2d2 d2cB "D"ABc2- c4 
| "Gm"BABA cBAG "D"FGA2- A4 \
| "Cm"GFGF AGFE "D"DEF2- FEDC \
| "Cm"CDEF F3E "D"EDD2- D4 :|



